X: 173
T: the Gravers flight
B: 204 Favourite Country Dances
N: Published by Straight & Skillern, London ca.1775
F: http://imslp.org/wiki/204_Favourite_Country_Dances_(Various) p.87 #173
Z: 2014 John Chambers <jc:trillian.mit.edu>
M: 6/8
L: 1/8
K: C
% - - - - - - - - - - - - - - - - - - - - - - - - -
c/B/ |\
cGF EFG | ABc BAG | cde def | ece d2c/B/ |\
cGF EFG | ABc BAG | cde def | ecc c2 :|
|: c |\
ece ege | dBd dgB | cBc ABc | BGG G2G |\
AFA (A/B/c)A | BGB (B/c/d)B | cBc def | ecc c2 :|
% - - - - - - - - - - - - - - - - - - - - - - - - -
%%begintext align
%% The First Cu. lead thro' the Wo.s side and turn .|
%% Foot it 3 top and bottom .|. Turn Corners with
%% your Right hands your Partner with your Left
%% :|. Right and Left at top :|:
%%endtext

%%sep 1 1 500
%%sep 1 1 500
